!! 00000] TT[WS
!!!OTL: Jieme guandeng
!!!ARE: Asia, China,ÿShanxi Huoxian
!! Ethnic Group: Han
!! WI, 179 (2)
!!!SCT: J0212c
!!!YEM: Copyright 1995, estate of Helmut Schaffrath.
**kern
*ICvox
*Ivox
*M2/4
*k[f#c#]
*D:
{8b
8dd
8f#
8a
=1
4.b
8a
=2
4.b
8a
=3
4b
4r
=4
4b
8b
8dd
=5
8b
8a
8f#
8a
=6
4b
4r}
=7
{4.ff#
8ee
=8
4.dd
8ff#
=9
8b
8a
8e
8f#
=10
8ff#
8b
4dd
=11
8ff#
8b
4a
=12
8dd
4f#
8e
=13
4f#
4r}
=14
{4dd
4d
=15
4.d
8e
=16
8f#
8e
8f#
8r
=17
4b
8b
8dd
=18
8b
8a
8f#
8a
=19
4b
4r
=20
8b
8dd
8f#
8a
=21
4.b
8dd}
=22
{2d
=23
8a
8b
8a
8f#
=24
4e
4e
=25
8a
8b
8a
8f#
=26
8e
8f#
8a
8a
=27
8b
8a
4d
=28
8e
4B
8A
=29
4.B
8c#
=30
4B
4r}
==
!!!AGN: Xiaodiao. Fengsuge, Qingge
!!!ONB: ESAC (Essen Associative Code) Database: CHINA
!!!AMT: simple duple
!!!AIN: vox
!!!EED: Helmut Schaffrath
!!!EEV: 1.0
*-
